!!!COM: Fe/licien David
!!!CNT: Francais
!!!TXO: Francais
!!!OTL: Fleur de Bonheur
!!!LYR: Emile Barateau
!!!ENC: Jacob Pegg
!!!YOR: Romantic French Song 1830-1870, David Tunley, ed., New York: Garland Publishing, Inc., 1995
!!!ODT: 1847/
!!NB: Vocal melody and text only encoded.
!!NB: Only first strophe encoded.
**kern	**silbe
*clef G2	*
*k[f#]	*
*M6/8	*
=1	=1
2.r	.
=2	=2
!!timing error - probable source grupettos (Q)
4r	.
{8b	{Je
(8b	suis
(16ccq	|
16bq)	|
8a)	|
8b	heu-
=3	=3
4dd	-reux
8b	de
(8b	ce
(16ccq	|
16bq)	|
8a)	|
8b	doux
=4	=4
4g	ga-
8d	-ge;
4g	U-
8b	-ne
=5	=5
4ee	fleur
8ee	fait
(8ee	mon
8ff#)	|
8ee	bon-
=6	=6
4dd}	heur!}
8r	.
{8b	{D'un
8b	peu
8ee	d'a-
=7	=7
(8cc	-mour
16ddq	|
16ccq	|
8b)	|
8a	c'est
4a	le
8dd	pre/-
=8	=8
(8b	-sa-
8a)	|
8g	-ge,
(8g	Et
8b)	|
8dd	l'es-
=9	=9
4gg	-poir
(16g	est
16a)	|
4b	dans
8a	mon
=10	=10
4.g}	coeur!}
8r	.
4r	.
=11	=11
2.r	.
=12	=12
4r	.
{8b	{Oui,
4b	res-
8ee	-te
=13	=13
4ee	la\,
8dd	tou-
4b	-jours
8cc	ca-
=14	=14
4cc	-che/-
8b	-e,
8b	Ma
8b	blan-
8cc#	-che
=15	=15
(8.dd	fleur,
16cc#)	|
8b	ma
4ff#	blan-
8a#	-che
=16	=16
4b}	fleur!..}
8r	.
{(16ddq	{a
8cc#	|
8b	|
8cc#	|
=17	=17
4.dd)	|
(16ddq	a
8cc#	|
8b	|
8cc#	|
=18	=18
4.b)	|
(ddq	a
8cc#	|
8b	|
8cc#	|
=19	=19
4.dd)	|
(ddq	a
8cc#	|
8b	|
8cc#	|
=20	=20
4b)}	|}
8r	.
{8dd	{Ah!
8dd	res-
8dd	-te
=21	=21
(8.ff#	la\,
16ee)	|
8dd	pre\s
(8dd	de
8b)	|
8cc#	mon
=22	=22
[2.dd	coeur!
=23	=23
2.dd]}	|}
=24	=24
4r	.
8r	.
{8dd	{Car
8dd	cet-
8dd	-te
=25	=25
(8dd	main
8cc)	|
8b	qui
(8a	t'a
16bq	|
16aq	|
8g)	|
8a	tou-
=26	=26
4b	-che/-
8g	-e,
8dd#	Por-
8dd#	-te
8dd#	bon-
=27	=27
4ee	-heur,
(16cc	por-
16b)	|
4b	-te
8a	bon-
=28	=28
4.g}	-heur!}
4r	.
8r	.
*-	*-
